images/graphics/mountain_background_medium.svg

<svg width="416" height="126" viewBox="0 0 416 126" fill="none" xmlns="http://www.w3.org/2000/svg">
<path fill-rule="evenodd" clip-rule="evenodd" d="M0 109.843C3.37249 107.208 7.1269 104.198 11.3049 100.772C46.7771 71.6897 34.0913 83.9504 61.9586 107.848C71.8091 116.313 82.4664 94.0179 72.3328 76.1941C72.0356 75.6789 93.1755 50.335 93.4774 50.1318C93.2227 48.1939 101.691 91.9713 101.252 61.6552C101.252 61.4377 107.357 40.3525 111.235 40.102C119.618 39.5632 107.697 32.0432 122.104 23.0202C125.572 20.8555 130.356 9.85674 131.2 7.70615C131.342 7.92358 153.236 27.5861 156.562 31.6273C160.176 36.0041 179.377 40.4754 178.665 55.8462C178.627 56.697 185.736 72.0441 185.284 80.2116C184.901 87.2022 204.244 95.5352 211.33 113.109C220.411 135.631 208.877 91.6357 218.166 105.815C224.793 115.954 229.708 113.985 239.366 126C248.289 126 231 126 248.289 126C246.828 119.047 245.251 110.915 243.471 109.814C238.744 106.907 220.529 95.0483 220.591 91.2245C220.888 72.8855 244.406 104.303 238.192 91.3569C226.285 66.5519 231.507 82.6647 224.884 79.0205C227.898 75.2062 225.856 72.7437 226.695 70.4229C231.248 68.9057 232.026 71.1036 221.478 61.0407C210.259 50.3539 224.865 45.4525 218.765 31.9771C216.156 26.2296 225.714 26.7778 232.168 32.0243C235.48 34.7279 259.837 45.4619 275.797 52.0602C288.454 66.8733 303.424 76.7565 320.704 81.7194C307.523 74.3176 296.71 66.0698 288.266 56.9617C288.87 57.1649 289.308 57.2831 289.544 57.3303C308.24 60.4026 303.598 63.8341 314.713 70.0637C321.851 71.0327 336.716 88.8329 357.035 93.9849C367.782 96.7215 378.883 116.039 390.47 124.325C391.286 124.907 392.114 125.466 392.952 126C415.611 125.991 388 125.991 415.611 125.991C412.869 124.808 409.558 123.529 405.613 122.16C387.346 115.85 378.053 102.209 366.239 88.8329C353.766 74.7005 336.056 76.2319 329.583 68.3811C325.134 62.9786 299.135 49.1203 292.007 46.7807C291.827 46.6152 291.365 46.516 291.068 46.3127C290.096 45.6557 289.624 45.6557 288.917 45.2634C287.289 44.3323 286.803 45.2871 285.043 45.2493C284.383 45.2493 282.156 43.8407 282.085 43.6469C281.892 43.5382 281.029 43.179 280.906 43.0845C279.797 42.1534 276.887 40.0831 275.514 39.9413C274.537 39.8468 272.811 38.6746 272.098 38.4477C270.202 37.8238 269.635 36.4011 266.923 35.9379C264.8 35.5787 262.068 34.8744 260.214 33.7495C260.238 33.5226 237.659 27.1985 236.433 26.8771C236.211 26.8298 235.692 26.6124 235.027 26.3146C230.3 20.9925 222.629 19.9054 216.68 16.559C213.939 15.0276 203.088 20.8271 199.257 23.3133C197.248 24.6273 196.172 24.6036 194.856 25.7144C194.049 26.395 188.289 28.9426 187.359 28.1296C186.548 27.4112 187.081 27.6617 186.265 27.4868C182.901 26.7448 183.628 28.6685 182 28.8953C179.099 29.2924 180.335 29.7225 178.858 30.233C176.419 31.1074 177.929 31.7171 175.367 31.6698C173.4 28.7063 167.828 27.8791 165.219 23.9703C164.644 23.0958 159.766 18.7332 158.204 18.7001C156.237 18.6765 150.632 12.8912 147.49 11.8514C147.462 11.8372 143.801 9.25647 143.603 9.09104C143.575 9.0674 140.815 7.84795 140.079 7.17678C139.088 6.26928 135.531 4.80877 132.766 4.05725C131.554 3.35299 130.337 2.75272 129.186 2.47857C125.043 1.46236 124.609 -0.929278 121.623 0.384707C115.608 3.00322 116.948 1.89248 110.499 6.1133C109.89 6.02822 106.527 6.6994 106.196 7.0208C104.474 8.68455 103.205 10.6319 101.285 10.5941C97.8366 10.5326 98.9358 11.2889 95.0248 13.3308C91.7177 15.089 91.062 16.3652 87.4435 17.873C85.8395 18.5536 82.0465 22.1269 80.4425 21.9615C79.4801 22.5476 77.8761 21.2194 75.9843 24.1357C75.6399 24.6603 73.5122 24.6036 71.5308 27.0898C71.4506 27.1985 69.422 28.1911 68.8653 28.763C65.4497 32.2654 67.2896 30.1148 65.7469 30.9845C63.5768 32.2276 61.2793 33.5888 58.9676 34.501C54.382 36.2688 54.5755 37.5969 52.3676 38.9015C49.4426 40.6361 49.2539 41.6523 45.5081 42.9521C43.4889 43.6706 36.8559 48.8934 34.6669 49.2905C32.558 49.6497 24.8022 56.9428 21.7545 58.2662C21.5139 58.3844 20.7827 58.9374 20.5751 59.1264C16.0933 59.6653 14.5742 62.7375 10.734 64.5762C8.97905 65.4128 8.5922 66.4999 6.42679 67.1002C4.45071 67.6315 1.90608 69.7001 0 71.2255C-1.71661e-05 102 7.62939e-06 66 0 109.843Z" fill="white" fill-opacity="0.5"/>
</svg>

<svg xmlns="http://www.w3.org/2000/svg" width="416" height="126" fill="none"><path fill="#fff" fill-opacity=".5" fill-rule="evenodd" d="m0 109.843 11.305-9.071c35.472-29.082 22.786-16.822 50.654 7.076 9.851 8.465 20.508-13.83 10.374-31.654-.297-.515 20.843-25.859 21.145-26.062-.255-1.938 8.214 41.84 7.775 11.523 0-.218 6.105-21.303 9.983-21.553 8.383-.539-3.538-8.059 10.869-17.082 3.468-2.165 8.252-13.163 9.096-15.314.142.217 22.036 19.88 25.362 23.921 3.614 4.377 22.815 8.848 22.103 24.219-.038.851 7.071 16.198 6.619 24.365-.383 6.991 18.96 15.324 26.046 32.897 9.081 22.522-2.453-21.473 6.836-7.294 6.627 10.139 11.542 8.17 21.2 20.185h8.923c-1.461-6.953-3.038-15.085-4.818-16.186-4.727-2.907-22.942-14.766-22.88-18.589.297-18.339 23.815 13.078 17.601.132-11.907-24.805-6.685-8.692-13.308-12.336 3.014-3.814.972-6.277 1.811-8.598 4.553-1.517 5.331.681-5.217-9.382-11.219-10.687 3.387-15.588-2.713-29.064-2.609-5.747 6.949-5.199 13.403.047 3.312 2.704 27.669 13.438 43.629 20.036 12.657 14.813 27.627 24.696 44.907 29.659-13.181-7.402-23.994-15.65-32.438-24.758.604.203 1.042.321 1.278.369 18.696 3.072 14.054 6.504 25.169 12.733 7.138.969 22.003 18.769 42.322 23.921 10.747 2.737 21.848 22.054 33.435 30.34a57.38 57.38 0 0 0 2.482 1.675c22.659-.009-4.952-.009 22.659-.009-2.742-1.183-6.053-2.462-9.998-3.831-18.267-6.31-27.56-19.951-39.374-33.327-12.473-14.132-30.183-12.601-36.656-20.452-4.449-5.403-30.448-19.261-37.576-21.6-.18-.166-.642-.265-.939-.468-.972-.657-1.444-.657-2.151-1.049-1.628-.931-2.114.024-3.874-.014-.66 0-2.887-1.409-2.958-1.602-.193-.109-1.056-.468-1.179-.562-1.109-.931-4.019-3.001-5.392-3.143-.977-.094-2.703-1.267-3.416-1.494-1.896-.624-2.463-2.047-5.175-2.51-2.123-.359-4.855-1.063-6.709-2.188.024-.227-22.555-6.551-23.781-6.872-.222-.047-.741-.265-1.406-.562-4.727-5.322-12.398-6.409-18.347-9.756-2.741-1.531-13.592 4.268-17.423 6.754-2.009 1.314-3.085 1.29-4.401 2.401-.807.681-6.567 3.228-7.497 2.415-.811-.718-.278-.468-1.094-.643-3.364-.742-2.637 1.182-4.265 1.409-2.901.397-1.665.827-3.142 1.338-2.439.874-.929 1.484-3.491 1.437-1.967-2.963-7.539-3.791-10.148-7.699-.575-.875-5.453-5.237-7.015-5.27-1.967-.024-7.572-5.809-10.714-6.849a304.24 304.24 0 0 1-3.887-2.76c-.028-.024-2.788-1.243-3.524-1.914-.991-.907-4.548-2.368-7.313-3.12-1.212-.704-2.429-1.305-3.58-1.579-4.143-1.016-4.577-3.408-7.563-2.094-6.015 2.619-4.675 1.508-11.124 5.729-.609-.085-3.972.586-4.303.908-1.722 1.664-2.991 3.611-4.911 3.573-3.448-.061-2.349.695-6.26 2.737-3.307 1.758-3.963 3.034-7.581 4.542-1.604.681-5.397 4.254-7.001 4.089-.962.586-2.566-.742-4.458 2.174-.344.525-2.472.468-4.454 2.954-.08.109-2.109 1.101-2.665 1.673-3.416 3.502-1.576 1.352-3.118 2.221-2.17 1.243-4.468 2.604-6.779 3.516-4.586 1.768-4.392 3.096-6.6 4.401-2.925 1.735-3.114 2.751-6.86 4.051-2.019.718-8.652 5.941-10.841 6.338-2.109.359-9.865 7.652-12.912 8.976-.241.118-.972.671-1.179.86-4.482.539-6.001 3.611-9.841 5.45-1.755.837-2.142 1.924-4.307 2.524-1.976.531-4.521 2.6-6.427 4.125C0 102 0 66 0 109.843z"/></svg>
